!!!!SEGMENT: pl-wtm--r-2046_smietanski-emil-wladyslaw--ii-etude-de-concert.krn
!!!cenid: 18xx:2030
!!!COM: Śmietański, Emil Władysław
!!!COM-rismid: pe50041781
!!!CDT: 1845-1886
!!!CNT: Polish
!!!OTL: II Etude de Concert
!!!PDT: 1877
!!!AGN: Secular; Etude
!!!SMS-siglum: PL-Wtm
!!!SMS-shelfmark: R 2046
!!!SMS-shelfwork: W
!!!SMS-variant:
!!!SMS-altvar:
!!!NIFC-rismid: 1001111849
!!!URL-scan: http://repozytorium.nifc.pl/skany/pl-wtm-nut--r2046
!!!ONB-nifc:
**kern	**kern	**dynam	**fing
*part1	*part1	*part1	*part1
*staff2	*staff1	*	*staff1
*Iempty	*Iforte	*	*
*	*I"[Fortepiano]	*	*
*	*I'pf	*	*
*clefF4	*clefG2	*	*
*k[b-e-a-]	*k[b-e-a-]	*	*
*c:	*c:	*	*
*M2/4	*M2/4	*	*
=1	=1	=1	=1
*	*^	*	*
*	*ped	*	*	*
*Xtuplet	*Xtuplet	*	*	*
!	!LO:TX:t=Con moto. molto espressivo. e cantando	!	!	!
24C\LL	24g/LL	4g\	.	.
24E-\	24c/	.	.	.
24C\	24g/	.	.	.
24GG\	24cc/	.	.	.
!	!	!	!LO:DY:b:t=%s.	!
24CC\	24ee-/	.	p	.
24GG\JJ	24cc/JJ	.	.	.
*	*ped	*	*	*
24C\LL	24g/LL	4g\	.	.
24E-\	24c/	.	.	.
24C\	24g/	.	.	.
!	!LO:TX:b:t=etc.	!	!	!
24GG\	24cc/	.	.	.
24CC\	24ee-/	.	.	.
24GG\JJ	24cc/JJ	.	.	.
=2	=2	=2	=2	=2
24C\LL	24a-/LL	4a-\	.	.
24F\	24c/	.	.	.
24C\	24a-/	.	.	.
24AA-\	24cc/	.	.	.
24CC\	24ff/	.	.	.
24AA-\JJ	24cc/JJ	.	.	.
24C\LL	24b-/LL	8b-\L	.	.
24F\	24c/	.	.	.
24C\	24b-/	.	.	.
24AA-\	24cc/	8a-\J	.	.
24CC\	24ff/	.	.	.
24AA-\JJ	24a-/JJ 24cc	.	.	.
=3	=3	=3	=3	=3
24C\LL	24g/LL	4g\	.	.
24E-\	24c/	.	.	.
24C\	24g/	.	.	.
24GG\	24cc/	.	.	.
24CC\	24ee-/	.	.	.
24GG\JJ	24cc/JJ	.	.	.
24C\LL	24f/LL	4f\	.	.
24G\	24Bn/	.	.	.
24C\	24f/	.	.	.
24GG\	24g/	.	.	.
24CC\	24dd/	.	.	.
24GG\JJ	24g/JJ	.	.	.
=4	=4	=4	=4	=4
24C\LL	24e-/LL	4e-\	.	.
24E-\	24G/	.	.	.
24C\	24e-/	.	.	.
24GG\	24g/	.	.	.
24CC\	24cc/	.	.	.
24GG\JJ	24g/JJ	.	.	.
24C\LL	24e-/LL	8e-\L	.	.
24E-\	24G/	.	.	.
24C\	24e-/	.	.	.
*	*	*	*	*below
24GG\	24g/	8en\J	.	3
24CC\	24cc/	.	.	.
24GG\JJ	24g/JJ	.	.	.
!!LO:LB:g=original	!	!	!	!
=5	=5	=5	=5	=5
24C\LL	24f/LL	4f\	<	.
24F\	24A-/	.	.	.
24C\	24f/	.	.	.
24AA-\	24a-/	.	.	.
24FF\	24cc/	.	.	.
24AA-\JJ	24a-/JJ	.	.	.
24D\LL	24f#X/LL	4f#\	.	.
24F#X\	24An/	.	.	.
24D\	24f#/	.	.	.
24AAn\	24an/	.	.	.
24DD\	24dd/	.	.	.
24AA\JJ	24a/JJ	.	.	.
=6	=6	=6	=6	=6
24E-\LL	24g/LL	4g\	.	.
24G\	24c/	.	.	.
24E-\	24g/	.	.	.
24C\	24cc/	.	.	.
24GG\	24ee-/	.	.	.
24C\JJ	24cc/JJ	.	.	.
24E-\LL	24g/LL	8g\L	.	.
24G\	24c/	.	.	.
24E-\	24g/	.	.	.
*	*	*	*	*below
24C\	24cc/	8an\J	.	3
24GG\	24ee-/	.	.	.
24C\JJ	24a/JJ 24cc	.	[	.
=7	=7	=7	=7	=7
24G\LL	24bn/LL	4bn\	>	.
24Bn\	24d/	.	.	.
24G\	24b/	.	.	.
24D\	24dd/	.	.	.
24GG\	24gg/	.	.	.
24D\JJ	24dd/JJ	.	.	.
24F#X\LL	24an/LL	4an\	.	.
24c\	24d/	.	.	.
24F#\	24a/	.	.	.
24AAn\|	24dd/	.	.	.
24DD\	24ff#X/	.	.	.
24AAn\JJ|	24dd/JJ	.	.	.
=8	=8	=8	=8	=8
24G\LL	24g/LL	4g\	.	.
24Bn\	24bn/ 24dd 24gg	.	.	.
24G\	24ff#X/	.	.	.
24D\	24gg/	.	.	.
24GG\	24ff#/	.	.	.
24D\JJ	24gg/JJ	.	.	.
24GG\LL	24g/LL	4g\	.	.
24BBn\	24Bn/ 24d 24g	.	.	.
24GG\	24f#X/	.	.	.
24DD\	24g/	.	.	.
24GGG\	24f#/	.	.	.
24DD\JJ	24g/JJ	.	]	.
!!LO:LB:g=original	!	!	!	!
=9	=9	=9	=9	=9
24C\LL	24g/LL	4g\	.	.
!	!	!	!LO:DY:b:t=%s.	!
24E-\	24c/	.	p	.
24C\	24g/	.	.	.
24GG\	24cc/	.	.	.
24CC\	24ee-/	.	.	.
24GG\JJ	24cc/JJ	.	.	.
24C\LL	24g/LL	4g\	.	.
24E-\	24c/	.	.	.
24C\	24g/	.	.	.
24GG\	24cc/	.	.	.
24CC\	24ee-/	.	.	.
24GG\JJ	24cc/JJ	.	.	.
=10	=10	=10	=10	=10
24C\LL	24a-/LL	4a-\	.	.
24F\	24c/	.	.	.
24C\	24a-/	.	.	.
24AA-\	24cc/	.	.	.
24CC\	24ff/	.	.	.
24AA-\JJ	24cc/JJ	.	.	.
24C\LL	24b-/LL	8b-\L	.	.
24F\	24c/	.	.	.
24C\	24b-/	.	.	.
24AA-\	24cc/	8a-\J	.	.
24CC\	24ff/	.	.	.
24AA-\JJ	24a-/JJ 24cc	.	.	.
=11	=11	=11	=11	=11
24C\LL	24g/LL	4g\	.	.
24E-\	24c/	.	.	.
24C\	24g/	.	.	.
24GG\	24cc/	.	.	.
24CC\	24ee-/	.	.	.
24GG\JJ	24cc/JJ	.	.	.
24C\LL	24f/LL	4f\	.	.
24G\	24Bn/	.	.	.
24C\	24f/	.	.	.
24GG\	24g/	.	.	.
24CC\	24dd/	.	.	.
24GG\JJ	24g/JJ	.	.	.
=12	=12	=12	=12	=12
24C\LL	24e-/LL	4e-\	.	.
24E-\	24G/	.	.	.
24C\	24e-/	.	.	.
24GG\	24g/	.	.	.
24CC\	24cc/	.	.	.
24GG\JJ	24g/JJ	.	.	.
24C\LL	24e-/LL	4e-\	.	.
24E-\	24G/	.	.	.
24C\	24e-/	.	.	.
24GG\	24g/	.	.	.
24CC\	24cc/	.	.	.
24GG\JJ	24g/JJ	.	.	.
=13	=13	=13	=13	=13
24C\LL	24en/LL	4en\	<	.
24En\	24G/	.	.	.
24C\	24e/	.	.	.
24GG\	24g/	.	.	.
24CC\	24cc/	.	.	.
24GG\JJ	24g/JJ	.	.	.
24C\LL	24d/LL	8d\L	.	.
24E\	24G/	.	.	.
24C\	24d/	.	.	.
24GG\	24g/	8e\J	.	.
24CC\	24cc/	.	.	.
24GG\JJ	24e/JJ 24g	.	.	.
!!LO:LB:g=original	!	!	!	!
=14	=14	=14	=14	=14
24C\LL	24f/LL	4f\	.	.
24F\	24A-/	.	.	.
24C\	24f/	.	.	.
24AA-\	24a-/	.	.	.
24FF\	24cc/	.	.	.
24AA-\JJ	24a-/JJ	.	.	.
24A-\LL	24cc/LL	4cc\	.	.
24c\	24f/	.	.	.
24A-\	24cc/	.	.	.
24F\	24ff/	.	.	.
24AA-\	24aa-/	.	.	.
24F\JJ	24ff/JJ	.	[	.
=15	=15	=15	=15	=15
24G\LL	24cc/LL	4cc\	>	.
24c\	24e-/	.	.	.
24G\	24cc/	.	.	.
24E-\	24ee-/	.	.	.
24GG\	24gg/	.	.	.
24E-\JJ	24ee-/JJ	.	.	.
24G\LL	24bn/LL	4bn\	.	.
24Bn\	24d/	.	.	.
24G\	24b/	.	.	.
24D\	24dd/	.	.	.
24GG\	24gg/	.	.	.
24D\JJ	24dd/JJ	.	.	.
=16	=16	=16	=16	=16
24G\LL	24cc/LL	4cc\	.	.
24c\	24e-/	.	.	.
24G\	24cc/	.	.	.
24E-\	24ee-/	.	.	.
24C\	24gg/	.	.	.
24E-\JJ	24ee-/JJ	.	.	.
24G\LL	24cc/LL	4cc\	]	.
24c\	24e-/	.	.	.
24G\	24cc/	.	.	.
24E-\	24ee-/	.	.	.
24C\	24gg/	.	.	.
24E-\JJ	24ee-/JJ	.	.	.
=17	=17	=17	=17	=17
24C\LL	24en/LL	4en\	<	.
24En\	24G/	.	.	.
24C\	24e/	.	.	.
24GG\	24g/	.	.	.
24CC\	24cc/	.	.	.
24GG\JJ	24g/JJ	.	.	.
24C\LL	24d/LL	8d\L	.	.
24E\	24G/	.	.	.
24C\	24d/	.	.	.
24GG\	24g/	8en\J	.	.
24CC\	24cc/	.	.	.
24GG\JJ	24g/JJ	.	.	.
!!LO:LB:g=original	!	!	!	!
=18	=18	=18	=18	=18
24C\LL	24f/LL	4f\	.	.
24F\	24A-/	.	.	.
24C\	24f/	.	.	.
24AA-\	24a-/	.	.	.
24FF\	24cc/	.	.	.
24AA-\JJ	24a-/JJ	.	.	.
24A-\LL	24ff/LL	4ff\	.	.
24c\	24a-/	.	.	.
24A-\	24ff/	.	.	.
24F\	24aa-/	.	.	.
24AA-\	24ccc/	.	.	.
24F\JJ	24aa-/JJ	.	.	.
=19	=19	=19	=19	=19
24G\LL	24ee-/LL	4ee-\	[	.
24c\	24g/	.	.	.
24G\	24ee-/	.	.	.
24E-\	24gg/	.	.	.
24GG\	24ccc/	.	.	.
24E-\JJ	24gg/JJ	.	.	.
24G\LL	24dd/LL	4dd\	>	.
24Bn\	24g/	.	.	.
24G\	24dd/	.	.	.
24D\	24gg/	.	.	.
24GG\	24bbn/	.	.	.
24D\JJ	24gg/JJ	.	.	.
=20	=20	=20	=20	=20
24c\LL	24cc/LL	4cc\	.	.
24e-\	24ee-/ 24gg 24ccc	.	.	.
24c\	24bbn/	.	.	.
24G\	24ccc/	.	.	.
24C\	24bb/	.	.	.
24G\JJ	24ccc/JJ	.	.	.
24C\LL	24cc/LL	4cc\	.	.
24E-\	24e-/ 24g 24cc	.	.	.
24C\	24bn/	.	.	.
24GG\	24cc/	.	.	.
24CC\	24b/	.	.	.
24GG\JJ	24cc/JJ	.	]	.
=21	=21	=21	=21	=21
24GG\LL	24g/LL	4g\	.	.
!	!	!	!LO:DY:b:t=%s.	!
24D\	24Bn/	.	p	.
24GG\	24g/	.	.	.
24DD\	24bn/	.	.	.
24GGG\	24dd/	.	.	.
24DD\JJ	24b/JJ	.	.	.
24GG\LL	24f#X/LL	8f#\L	.	.
24D\	24B/	.	.	.
24GG\	24f#/	.	.	.
24DD\	24b/	8g\J	.	.
24GGG\	24dd/	.	.	.
24DD\JJ	24b/JJ	.	.	.
!!LO:LB:g=original	!	!	!	!
=22	=22	=22	=22	=22
24GG\LL	24a-/LL	4a-\	.	.
24E-\	24c/	.	.	.
24GG\	24a-/	.	.	.
24EE-\	24cc/	.	.	.
24GGG\	24ee-/	.	.	.
24EE-\JJ	24cc/JJ	.	.	.
24GG\LL	24g/LL	4g\	.	.
24E-\	24c/	.	.	.
24GG\	24g/	.	.	.
24EE-\	24cc/	.	.	.
24GGG\	24ee-/	.	.	.
24EE-\JJ	24cc/JJ	.	.	.
=23	=23	=23	=23	=23
24G\LL	24ee-/LL	4ee-\	.	.
!	!	!	!LO:DY:b:t=%s.	!
24c\	24g/	.	p	.
24G\	24ee-/	.	.	.
24D\	24ff#X/	.	.	.
24GG\	24ccc/	.	.	.
24D\JJ	24ff#/JJ	.	.	.
24G\LL	24dd/LL	8dd\L	.	.
24c\	24g/	.	.	.
24G\	24dd/	.	.	.
24D\	24ff#/	8cc\J	.	.
24GG\	24ccc/	.	.	.
24D\JJ	24ff#/JJ	.	.	.
=24	=24	=24	=24	=24
24G\LL	24dd/LL	4dd\	.	.
24Bn\	24g/	.	.	.
24G\	24dd/	.	.	.
24D\	24gg/	.	.	.
24GG\	24bbn/	.	.	.
24D\JJ	24gg/JJ	.	.	.
24G\LL	24dd/LL	4dd\	.	.
24B\	24g/	.	.	.
24G\	24dd/	.	.	.
24D\	24gg/	.	.	.
24GG\	24bb/	.	.	.
24D\JJ	24gg/JJ	.	.	.
=25	=25	=25	=25	=25
!	!	!	!LO:TX:t=cres_:problem:dynamics with extention lines	!
24C\LL	24cc\LL	4cc/	<	.
24G\	24en\	.	.	.
24C\	24cc\	.	.	.
24GG\	24een\	.	.	.
24CC\	24gg\	.	.	.
24GG\JJ	24ee\JJ	.	.	.
24C\LL	24bn\LL	8bn/L	.	.
24G\	24e\	.	.	.
24C\	24b\	.	.	.
24GG\	24cc\	8ee/J	.	.
24CC\	24gg\	.	.	.
24GG\JJ	24ee\JJ	.	.	.
!!LO:LB:g=original	!	!	!	!
=26	=26	=26	=26	=26
24C\LL	24dd-X\LL	4dd-/	.	.
24A-\	24f\	.	.	.
24C\	24dd-\	.	.	.
24AA-\	24ff\	.	.	.
24CC\	24aa-\	.	.	.
24AA-\JJ	24ff\JJ	.	.	.
24C\LL	24cc\LL	4cc/	.	.
24A-\	24f\	.	.	.
24C\	24cc\	.	.	.
24AA-\	24ff\	.	.	.
24CC\	24aa-\	.	.	.
24AA-\JJ	24ff\JJ	.	[	.
=27	=27	=27	=27	=27
24c\LL	24aa-\LL	4aa-/	.	.
!	!	!	!LO:DY:b:t=%s.	!
24f\	24cc\	.	p	.
24c\	24aa-\	.	.	.
24G\	24bbn\	.	.	.
24C\	24ddd\	.	.	.
24G\JJ	24bb\JJ	.	.	.
24c\LL	24gg\LL	8gg/L	.	.
24f\	24cc\	.	.	.
24c\	24gg\	.	.	.
24G\	24bb\	8ff/J	.	.
24C\	24ddd\	.	.	.
24G\JJ	24bb\JJ	.	.	.
=28	=28	=28	=28	=28
24c\LL	24gg\LL	4gg/	.	.
24en\	24cc\	.	.	.
24c\	24gg\	.	.	.
24G\	24ccc\	.	.	.
24C\	24eeen\	.	.	.
24G\JJ	24ccc\JJ	.	.	.
24c\LL	24gg\LL	4gg/	.	.
24e\	24cc\	.	.	.
24c\	24gg\	.	.	.
24G\	24ccc\	.	.	.
24C\	24eee\	.	.	.
24G\JJ	24ccc\JJ	.	.	.
!LO:PB:g=original	!	!	!	!
=29	=29	=29	=29	=29
24F\LL	24aa-\LL	4aa-/	.	.
!	!	!	!LO:DY:b:t=%s.	!
24A-\	24cc\	.	pp	.
24F\	24aa-\	.	.	.
24C\	24ccc\	.	.	.
!	!LO:TX:b:t=il canto distintamente e sostenuto	!	!	!
24FF\	24fff\	.	.	.
24C\JJ	24ccc\JJ	.	.	.
24f\LL	24ccc\LL	4ccc/	.	.
24a-\	24ff\	.	.	.
24f\	24ccc\	.	.	.
24c\	24fff\	.	.	.
24F\	24aaa-\	.	.	.
24c\JJ	24fff\JJ	.	.	.
!!LO:LB:g=original	!	!	!	!
=30	=30	=30	=30	=30
24f\LL	24bbn\LL	4bbn/	.	.
24a-\	24ff\	.	.	.
24f\	24bb\	.	.	.
24c\	24ddd\	.	.	.
24F\	24fff\	.	.	.
24c\JJ	24ddd\JJ	.	.	.
24f\LL	24ccc\LL	4ccc/	.	.
24a-\	24ff\	.	.	.
24f\	24ccc\	.	.	.
24c\	24fff\	.	.	.
24F\	24aaa-\	.	.	.
24c\JJ	24fff\JJ	.	.	.
=31	=31	=31	=31	=31
24d-X\LL	24ff\LL	8ff/L	.	.
24f\	24a-\	.	.	.
24d-\	24ff\	.	.	.
24A-\	24gg\	8gg/J	.	.
24D-X\	24ddd-X\	.	.	.
24A-\JJ	24gg\JJ	.	.	.
24F\LL	24aa-\LL	4aa-/	.	.
24d-\	24dd-X\	.	.	.
24A-\	24aa-\	.	.	.
24F\	24ddd-\	.	.	.
24BB-\	24fff\	.	.	.
24F\JJ	24ddd-\JJ	.	.	.
=32	=32	=32	=32	=32
24c\LL	24gg\LL	4gg/	.	.
24en\	24cc\	.	.	.
24c\	24gg\	.	.	.
24G\	24ccc\	.	.	.
24C\	24eeen\	.	.	.
24G\JJ	24ccc\JJ	.	.	.
24c\LL	24gg\LL	4gg/	.	.
24e\	24cc\	.	.	.
24c\	24gg\	.	.	.
24G\	24ccc\	.	.	.
24C\	24eee\	.	.	.
24G\JJ	24ccc\JJ	.	.	.
!!LO:LB:g=original	!	!	!	!
=33	=33	=33	=33	=33
24F\LL	24aa-\LL	4aa-/	.	.
24A-\	24cc\	.	.	.
24F\	24aa-\	.	.	.
24C\	24ccc\	.	.	.
24FF\	24fff\	.	.	.
24C\JJ	24ccc\JJ	.	.	.
24f\LL	24ccc\LL	4ccc/	<	.
24a-\	24ff\	.	.	.
24f\	24ccc\	.	.	.
24c\	24fff\	.	.	.
24F\	24aaa-\	.	.	.
24c\JJ	24fff\JJ	.	.	.
=34	=34	=34	=34	=34
24f\LL	24bbn\LL	4bbn/	.	.
24a-\	24ff\	.	.	.
24f\	24bb\	.	.	.
24c\	24fff\	.	.	.
24F\	24aaa-\	.	.	.
24c\JJ	24fff\JJ	.	.	.
24f\LL	24ccc\LL	4ccc/	.	.
24a-\	24ff\	.	.	.
24f\	24ccc\	.	.	.
24c\	24fff\	.	.	.
24F\	24aaa-\	.	.	.
24c\JJ	24fff\JJ	.	.	.
=35	=35	=35	=35	=35
24c\LL	24ff\LL	8ff/L	.	.
24f\	24cc\	.	.	.
24c\	24ff\	.	.	.
24A-\	24gg\	8gg/J	.	.
24F\	24ccc\	.	.	.
24A-\JJ	24gg\JJ	.	.	.
24c\LL	24aa-\LL	4aa-/	[	.
24f\	24ff\	.	.	.
24c\	24aa-\	.	.	.
24A-\	24ccc\	.	.	.
24D\	24fff\	.	.	.
24A-\JJ	24ccc\JJ	.	.	.
=36	=36	=36	=36	=36
24G\LL	24gg\LL	4gg/	>	.
24Bn\	24bn\	.	.	.
24G\	24gg\	.	.	.
24D\	24bbn\	.	.	.
24GG\	24ddd\	.	.	.
24D\JJ	24bb\JJ	.	.	.
24G\LL	24ff\LL	4ff/	.	.
24B\	24b\	.	.	.
24G\	24ff\	.	]	.
24D\	24bb\	.	.	.
24GG\	24ddd\	.	.	.
24D\JJ	24bb\JJ	.	.	.
!!LO:LB:g=original	!	!	!	!
=37	=37	=37	=37	=37
!	!	!	!LO:DY:b:t=%s.	!
24c\LL	24ee-\LL	4ee-/	mf	.
!	!LO:TX:b:t=molto sostenuto.	!	!	!
24e-\	24g\	.	.	.
24c\	24ee-\	.	.	.
24G\	24gg\	.	.	.
24C\	24ccc\	.	.	.
24G\JJ	24gg\JJ	.	.	.
24c\LL	24ee-\LL	4ee-/	.	.
24e-\	24g\	.	.	.
24c\	24ee-\	.	.	.
24G\	24gg\	.	.	.
24C\	24ccc\	.	.	.
24G\JJ	24gg\JJ	.	.	.
=38	=38	=38	=38	=38
24A-\LL	24dd\LL	8dd/L	.	.
24c\	24f#X\	.	.	.
24A-\	24dd\	.	.	.
24E-\	24ff#X\	8ff#/J	.	.
24AA-\	24ccc\	.	.	.
24E-\JJ	24cc\JJ 24ff#	.	.	.
24A-\LL	24bn\LL	8bn/L	.	.
24c\	24f#\	.	.	.
24A-\	24b\	.	.	.
24E-\	24cc\	8ff#/J	.	.
24AA-\	24ccc\	.	.	.
24E-\JJ	24ff#\JJ	.	.	.
=39	=39	=39	=39	=39
24E-\LL	24cc\LL 24gg	4gg/	>	.
24c\	24ccc\ 24eee- 24ggg	.	.	.
24G\	24fff#X\	.	.	.
24E-\	24ggg\	.	.	.
24GG\	24fff#\	.	.	.
24E-\JJ	24ggg\JJ	.	.	.
24E-\LL	24gg\LL	4gg/	.	.
24c\	24cc\ 24ee- 24gg	.	.	.
24G\	24ff#X\	.	.	.
24E-\	24gg\	.	.	.
24GG\	24ff#\	.	.	.
24E-\JJ	24gg\JJ	.	.	.
=40	=40	=40	=40	=40
24D\LL	24bn\LL	4bn/	.	.
24Bn\	24bn\ 24dd 24gg	.	.	.
24G\	24ff#X\	.	.	.
24D\	24gg\	.	.	.
24GG\	24ff#\	.	.	.
24D\JJ	24gg\JJ	.	.	.
24BBn\LL	24g\LL	4g/	]	.
24D\	24Bn\ 24d 24g	.	.	.
24GG\	24f#X\	.	.	.
24DD\	24g\	.	.	.
24GGG\	24f#\	.	.	.
24DD\JJ	24g\JJ	.	.	.
!!LO:LB:g=original	!	!	!	!
=41	=41	=41	=41	=41
24C\LL	24g\LL	4g/	.	.
!	!	!	!LO:DY:b:t=%s.	!
24E-\	24c\	.	f	.
24C\	24g\	.	.	.
24GG\	24cc\	.	.	.
24CC\	24ee-\	.	.	.
24GG\JJ	24cc\JJ	.	.	.
24C\LL	24g\LL	4g/	.	.
24E-\	24c\	.	.	.
24C\	24g\	.	.	.
24GG\	24cc\	.	.	.
24CC\	24ee-\	.	.	.
24GG\JJ	24cc\JJ	.	.	.
=42	=42	=42	=42	=42
24C\LL	24a-\LL	4a-/	.	.
24F\	24c\	.	.	.
24C\	24a-\	.	.	.
24AA-\	24cc\	.	.	.
24CC\	24ff\	.	.	.
24AA-\JJ	24cc\JJ	.	.	.
24C\LL	24b-\LL	8b-/L	.	.
24F\	24c\	.	.	.
24C\	24b-\	.	.	.
24AA-\	24cc\	8a-/J	.	.
24CC\	24ff\	.	.	.
24AA-\JJ	24a-\JJ 24cc	.	.	.
=43	=43	=43	=43	=43
24C\LL	24g\LL	4g/	.	.
24E-\	24c\	.	.	.
24C\	24g\	.	.	.
24GG\	24cc\	.	.	.
24CC\	24ee-\	.	.	.
24GG\JJ	24cc\JJ	.	.	.
24C\LL	24f\LL	4f/	.	.
24G\	24Bn\	.	.	.
24C\	24f\	.	.	.
24GG\	24g\	.	.	.
24CC\	24dd\	.	.	.
24GG\JJ	24g\JJ	.	.	.
=44	=44	=44	=44	=44
24C\LL	24e-\LL	4e-/	.	.
24E-\	24G\	.	.	.
24C\	24e-\	.	.	.
24GG\	24g\	.	.	.
24CC\	24cc\	.	.	.
24GG\JJ	24g\JJ	.	.	.
24C\LL	24e-\LL	8e-/L	.	.
24E-\	24G\	.	.	.
24C\	24e-\	.	.	.
24GG\	24en\	8g/J	.	.
24CC\	24cc\	.	.	.
24GG\JJ	24e\JJ 24g	.	.	.
!!LO:LB:g=original	!	!	!	!
=45	=45	=45	=45	=45
24C\LL	24f\LL	4f/	.	.
24F\	24A-\	.	.	.
24C\	24f\	.	.	.
24AA-\	24a-\	.	.	.
24FF\	24cc\	.	.	.
24AA-\JJ	24a-\JJ	.	.	.
!	!	!	!LO:TX:t=cres_:problem:dynamics with extention lines	!
24D\LL	24f#X\LL	4f#\	<	.
24F#X\	24An\	.	.	.
24D\	24f#\	.	.	.
24AAn\	24an\	.	.	.
24DD\	24dd\	.	.	.
24AA\JJ	24a\JJ	.	.	.
=46	=46	=46	=46	=46
24E-\LL	24g\LL	4g/	.	.
24G\	24c\	.	.	.
24E-\	24g\	.	.	.
24C\	24cc\	.	.	.
24GG\	24ee-\	.	.	.
24C\JJ	24cc\JJ	.	.	.
24E-\LL	24g\LL	8g/L	.	.
24G\	24c\	.	.	.
24E-\	24g\	.	.	.
24C\	24an\	8cc/J	.	.
24GG\	24ff\	.	.	.
24C\JJ	24a\JJ 24cc	.	.	.
=47	=47	=47	=47	=47
24G\LL	24bn\LL	4bn/	.	.
24Bn\	24d\	.	.	.
24G\	24b\	.	.	.
24D\	24dd\	.	.	.
24GG\	24gg\	.	.	.
24D\JJ	24dd\JJ	.	.	.
24F#X\LL	24an\LL	4an/	[	.
24c\	24d\	.	.	.
24F#\	24a\	.	.	.
24AAn|\	24dd\	.	.	.
24DD\	24ff#X\	.	>	.
24AA\|JJ	24dd\JJ	.	.	.
=48	=48	=48	=48	=48
24G\LL	24g\LL	4g/	.	.
24Bn\	24bn\ 24dd 24gg	.	.	.
24G\	24ff#X\	.	.	.
24D\	24gg\	.	.	.
24GG\	24ff#\	.	.	.
24D\JJ	24gg\JJ	.	.	.
24GG\LL	24g\LL	4g/	.	.
24BBn\	24Bn\ 24d 24g	.	.	.
24GG\	24f#X\	.	.	.
24DD\	24g\	.	.	.
24GGG\	24f#\	.	.	.
24DD\JJ	24g\JJ	.	]	.
!!LO:LB:g=original	!	!	!	!
=49	=49	=49	=49	=49
24C\LL	24g\LL	4g/	.	.
!	!	!	!LO:DY:b:t=%s.	!
24E-\	24c\	.	p	.
24C\	24g\	.	.	.
24GG\	24cc\	.	.	.
24CC\	24ee-\	.	.	.
24GG\JJ	24cc\JJ	.	.	.
24C\LL	24g\LL	4g/	.	.
24E-\	24c\	.	.	.
24C\	24g\	.	.	.
24GG\	24cc\	.	.	.
24CC\	24ee-\	.	.	.
24GG\JJ	24cc\JJ	.	.	.
=50	=50	=50	=50	=50
24C\LL	24a-\LL	4a-/	.	.
24F\	24c\	.	.	.
24C\	24a-\	.	.	.
24AA-\	24cc\	.	.	.
24CC\	24ff\	.	.	.
24AA-\JJ	24cc\JJ	.	.	.
24C\LL	24b-\LL	8b-/L	.	.
24F\	24c\	.	.	.
24C\	24b-\	.	.	.
24AA-\	24cc\	8a-/J	.	.
24CC\	24ff\	.	.	.
24AA-\JJ	24a-\JJ 24cc	.	.	.
=51	=51	=51	=51	=51
24C\LL	24g\LL	4g/	.	.
24E-\	24c\	.	.	.
24C\	24g\	.	.	.
24GG\	24cc\	.	.	.
24CC\	24ee-\	.	.	.
24GG\JJ	24cc\JJ	.	.	.
24C\LL	24f\LL	4f/	.	.
24G\	24Bn\	.	.	.
24C\	24f\	.	.	.
24GG\	24g\	.	.	.
24CC\	24dd\	.	.	.
24GG\JJ	24g\JJ	.	.	.
=52	=52	=52	=52	=52
24C\LL	24e-\LL	4e-/	.	.
24E-\	24G\	.	.	.
24C\	24e-\	.	.	.
24GG\	24g\	.	.	.
24CC\	24cc\	.	.	.
24GG\JJ	24g\JJ	.	.	.
24C\LL	24e-\LL	4e-/	.	.
24E-\	24G\	.	.	.
24C\	24e-\	.	.	.
24GG\	24g\	.	.	.
24CC\	24cc\	.	.	.
24GG\JJ	24g\JJ	.	.	.
!!LO:LB:g=original	!	!	!	!
=53	=53	=53	=53	=53
24C\LL	24en\LL	4en/	.	.
24En\	24G\	.	.	.
24C\	24e\	.	.	.
24GG\	24g\	.	.	.
24CC\	24cc\	.	.	.
24GG\JJ	24g\JJ	.	.	.
24C\LL	24d\LL	8d/L	.	.
24E\	24G\	.	.	.
24C\	24d\	.	.	.
24GG\	24g\	8e/J	.	.
24CC\	24cc\	.	.	.
24GG\JJ	24e\JJ 24g	.	.	.
=54	=54	=54	=54	=54
!	!	!	!LO:TX:t=cres_:problem:dynamics with extention lines	!
24C\LL	24f\LL	4f/	<	.
24F\	24A-\	.	.	.
24C\	24f\	.	.	.
24AA-\	24a-\	.	.	.
24FF\	24cc\	.	.	.
24AA-\JJ	24a-\JJ	.	.	.
24A-\LL	24cc\LL	4cc/	.	.
24c\	24f\	.	.	.
24A-\	24cc\	.	.	.
24F\	24ff\	.	.	.
24AA-\	24aa-\	.	.	.
24F\JJ	24ff\JJ	.	[	.
=55	=55	=55	=55	=55
24G\LL	24cc\LL	4cc/	.	.
24c\	24e-\	.	.	.
24G\	24cc\	.	.	.
24E-\	24ee-\	.	.	.
24GG\	24gg\	.	.	.
24E-\JJ	24ee-\JJ	.	.	.
24G\LL	24bn\LL	4bn/	.	.
24Bn\	24d\	.	.	.
24G\	24b\	.	.	.
24D\	24dd\	.	.	.
24GG\	24gg\	.	.	.
24D\JJ	24dd\JJ	.	.	.
=56	=56	=56	=56	=56
24G\LL	24cc\LL	4cc/	>	.
24c\	24e-\	.	.	.
24G\	24cc\	.	.	.
24E-\	24ee-\	.	.	.
24C\	24gg\	.	.	.
24E-\JJ	24ee-\JJ	.	.	.
24G\LL	24cc\LL	4cc/	.	.
24c\	24e-\	.	.	.
24G\	24cc\	.	.	.
24E-\	24ee-\	.	.	.
24C\	24gg\	.	.	.
24E-\JJ	24ee-\JJ	.	]	.
!!LO:PB:g=original	!	!	!	!
=57	=57	=57	=57	=57
24C\LL	24en\LL	4en/	.	.
!	!	!	!LO:DY:b:t=%s.	!
24En\	24G\	.	f	.
24C\	24e\	.	.	.
24GG\	24g\	.	.	.
24CC\	24cc\	.	.	.
24GG\JJ	24g\JJ	.	.	.
24C\LL	24d\LL	8d/L	<	.
24E\	24G\	.	.	.
24C\	24d\	.	.	.
24GG\	24e\ 24g	8g/J	.	.
24CC\	24cc\	.	.	.
24GG\JJ	24e\JJ 24g	.	.	.
=58	=58	=58	=58	=58
24C\LL	24f\LL	4f/	.	.
24F\	24A-\	.	.	.
24C\	24f\	.	.	.
24AA-\	24a-\	.	.	.
24FF\	24cc\	.	.	.
24AA-\JJ	24a-\JJ	.	.	.
24A-\LL	24ff\LL	4ff/	.	.
24c\	24a-\	.	.	.
24A-\	24ff\	.	.	.
24F\	24aa-\	.	.	.
24AA-\	24ccc\	.	.	.
24F\JJ	24aa-\JJ	.	[	.
=59	=59	=59	=59	=59
24G\LL	24ee-\LL	4ee-/	.	.
!	!	!	!LO:DY:b:t=%s.	!
24c\	24g\	.	f	.
24G\	24ee-\	.	.	.
24E-\	24gg\	.	.	.
24GG\	24ccc\	.	.	.
24E-\JJ	24gg\JJ	.	.	.
24G\LL	24ee-\LL	4ee-/	>	.
24c\	24g\	.	.	.
24G\	24ee-\	.	.	.
24E-\	24gg\	.	.	.
24GG\	24ccc\	.	.	.
24E-\JJ	24gg\JJ	.	.	.
=60	=60	=60	=60	=60
24G\LL	24dd\LL	4dd/	.	.
24Bn\	24g\	.	.	.
24G\	24dd\	.	.	.
24D\	24gg\	.	.	.
24GG\	24bbn\	.	.	.
24D\JJ	24gg\JJ	.	.	.
24G\LL	24dd\LL	4dd/	.	.
24B\	24g\	.	.	.
24G\	24dd\	.	.	.
24D\	24gg\	.	.	.
24GG\	24bb\	.	.	.
24D\JJ	24gg\JJ	.	]	.
!!LO:LB:g=original	!	!	!	!
=61	=61	=61	=61	=61
!	!LO:TX:b:t=con forza	!	!	!
24C\LL	24ee-\LL	4ee-/	.	.
24E-\	24g\	.	.	.
24C\	24ee-\	.	.	.
24GG\	24gg\	.	.	.
24CC\	24ccc\	.	.	.
24GG\JJ	24gg\JJ	.	.	.
24c\LL	24gg\LL	4gg/	.	.
24e-\	24cc\	.	.	.
24c\	24gg\	.	.	.
24G\	24ccc\	.	.	.
24C\	24eee-\	.	.	.
24G\JJ	24ccc\JJ	.	.	.
=62	=62	=62	=62	=62
24c\LL	24ff#X\LL	4ff#/	.	.
24e-\	24cc\	.	.	.
24c\	24ff#\	.	.	.
24G\	24ccc\	.	.	.
24C\	24eee-\	.	.	.
24G\JJ	24ccc\JJ	.	.	.
24c\LL	24gg\LL	4gg/	.	.
24e-\	24cc\	.	.	.
24c\	24gg\	.	.	.
24G\	24ccc\	.	.	.
24C\	24eee-\	.	.	.
24G\JJ	24ccc\JJ	.	.	.
=63	=63	=63	=63	=63
24A-\LL	24cc\LL	8cc/L	.	.
24c\	24e-\	.	.	.
24A-\	24cc\	.	.	.
24E-\	24dd\	8dd/J	.	.
24AA-\	24aa-\	.	.	.
24E-\JJ	24dd\JJ	.	.	.
24C\LL	24ee-\LL	4ee-/	.	.
24A-\	24a-\	.	.	.
24E-\	24ee-\	.	.	.
24C\	24aa-\	.	.	.
24FF\	24ccc\	.	.	.
24C\JJ	24aa-\JJ	.	.	.
=64	=64	=64	=64	=64
24G\LL	24dd\LL	4dd/	.	.
24Bn\	24g\	.	.	.
24G\	24dd\	.	.	.
24D\	24gg\	.	.	.
24GG\	24bbn\	.	.	.
24D\JJ	24gg\JJ	.	.	.
24G\LL	24dd\LL	4dd/	.	.
24B\	24g\	.	.	.
24G\	24dd\	.	.	.
24D\	24gg\	.	.	.
24GG\	24bb\	.	.	.
24D\JJ	24gg\JJ	.	.	.
!!LO:LB:g=original	!	!	!	!
=65	=65	=65	=65	=65
24c\LL	24ee-\LL	4ee-/	.	.
24e-\	24g\	.	.	.
24c\	24ee-\	.	.	.
24G\	24gg\	.	.	.
24C\	24ccc\	.	.	.
24G\JJ	24gg\JJ	.	.	.
24C\LL	24g\LL	4g/	.	.
!	!	!	!LO:DY:b:t=%s.	!
24E-\	24c\	.	f	.
24C\	24g\	.	.	.
24GG\	24cc\	.	.	.
24CC\	24ee-\	.	.	.
24GG\JJ	24cc\JJ	.	.	.
=66	=66	=66	=66	=66
24C\LL	24f#X\LL	4f#/	.	.
24E-\	24c\	.	.	.
24C\	24fn\	.	.	.
24GG\	24cc\	.	.	.
24CC\	24ee-\	.	.	.
24GG\JJ	24cc\JJ	.	.	.
24C\LL	24g\LL	4g/	.	.
24E-\	24c\	.	.	.
24C\	24g\	.	.	.
24GG\	24cc\	.	.	.
24CC\	24ee-\	.	.	.
24GG\JJ	24cc\JJ	.	.	.
=67	=67	=67	=67	=67
24AA-\LL	24c\LL	8c/L	.	.
24C\	24F\	.	.	.
24AA-\	24c\	.	.	.
24EE-\	24d\	8d/J	.	.
24AAA-\	24a-\	.	.	.
24EE-\JJ	24d\JJ	.	.	.
24CC\LL	24e-\LL	4e-/	.	.
24AA-\	24A-\	.	.	.
24EE-\	24e-\	.	.	.
24CC\	24a-\	.	.	.
24FFF\	24cc\	.	.	.
24CC\JJ	24a-\JJ	.	.	.
=68	=68	=68	=68	=68
24GG\LL	24d\LL	4d/	.	.
24BBn\	24G\	.	.	.
24GG\	24d\	.	.	.
24DD\	24g\	.	.	.
24GGG\	24bn\	.	.	.
24DD\JJ	24g\JJ	.	.	.
24GG\LL	24d\LL	4d/	.	.
24BB\	24G\	.	.	.
24GG\	24d\	.	.	.
24DD\	24g\	.	.	.
24GGG\	24b\	.	.	.
24DD\JJ	24g\JJ	.	.	.
!!LO:LB:g=original	!	!	!	!
=69	=69	=69	=69	=69
24CC/LL	24e-\LL	4e-/	<	.
24GG/	24G\	.	.	.
24CC/	24e-\	.	.	.
24GGG/	24g\	.	.	.
24CCC/	24cc\	.	.	.
24GGG/JJ	24g\JJ	.	.	.
24CC/LL	24en\LL	4en/	.	.
24GG/	24G\	.	.	.
24CC/	24e\	.	.	.
24GGG/	24g\	.	.	.
24CCC/	24cc\	.	.	.
24GGG/JJ	24g\JJ	.	.	.
=70	=70	=70	=70	=70
24CC/LL	24f\LL	8f/L	.	.
24FF/	24A-\	.	.	.
24CC/	24f\	.	.	.
24AAA-/	24g\	8g/J	.	.
24CCC/	24cc\	.	.	.
24AAA-/JJ	24g\JJ	.	.	.
24CC/LL	24f\LL	4f/	[ >	.
24FF/	24A-\	.	.	.
24CC/	24f\	.	.	.
24AAA-/	24a-\	.	.	.
24CCC/	24cc\	.	.	5
24AAA-/JJ	24cc\JJ	.	]	1
=71	=71	=71	=71	=71
24C/LL	24ee-\LL	4ee-/	<	.
24G/	24g\	.	.	.
24C/	24ee-\	.	.	.
24GG/	24gg\	.	.	.
24CC/	24ccc\	.	.	.
24GG/JJ	24gg\JJ	.	.	.
24C/LL	24een\LL	4een/	.	.
24G/	24g\	.	.	.
24C/	24ee\	.	.	.
24GG/	24gg\	.	.	.
24CC/	24ccc\	.	.	.
24GG/JJ	24gg\JJ	.	.	.
=72	=72	=72	=72	=72
24C/LL	24ff\LL	8ff/L	[ >	.
24F/	24a-\	.	.	.
24C/	24ff\	.	.	.
24AA-/	24gg\	8gg/J	.	.
24CC/	24ccc\	.	.	.
24AA-/JJ	24gg\JJ	.	.	.
24C/LL	24ff\LL	4ff/	.	.
24F/	24a-\	.	.	.
24C/	24ff\	.	.	.
24AA-/	24aa-\	.	.	.
24CC/	24ccc\	.	.	.
24AA-/JJ	24ccc\JJ	.	]	.
*	*v	*v	*	*
!!LO:LB:g=original	!	!	!
=73	=73	=73	=73
*	*8va	*	*
*	*^	*	*
4CC/	24eee-\LL	4eee-/	.	.
!	!	!	!LO:DY:b:t=%s.	!
.	24gg\	.	ff	.
!	!LO:TX:b:t=al fine	!	!	!
.	24eee-\	.	.	.
.	24ggg\	.	.	.
.	24cccc\	.	.	.
.	24ggg\JJ	.	.	.
*clefG2	*	*	*	*
24cc\LL	24ggg\LL	4ggg/	.	.
24ee-\	24ccc\	.	.	.
24cc\	24ggg\	.	.	.
24g\	24cccc\	.	.	.
24c\	24cccc\	.	.	.
24g\JJ	24cccc\JJ	.	.	.
=74	=74	=74	=74	=74
24g\LL	24eee-\LL	4eee-/	.	.
24cc\	24gg\	.	.	.
24g\	24eee-\	.	.	.
24e-\	24ggg\	.	.	.
24G\	24cccc\	.	.	.
24e-\JJ	24ggg\JJ	.	.	.
*clefF4	*	*	*	*
24e-\LL	24ccc\LL	4ccc/	.	.
24g\	24ee-\	.	.	.
24e-\	24ccc\	.	.	.
24c\	24eee-\	.	.	.
24E-\	24ggg\	.	.	.
24c\JJ	24eee-\JJ	.	.	.
*	*v	*v	*	*
*	*X8va	*	*
=75	=75	=75	=75
*	*^	*	*
!	!LO:TX:a:t=loco	!	!	!
24c\LL	24gg\LL	4gg/	.	.
24e-\	24cc\	.	.	.
24c\	24gg\	.	.	.
24G\	24ccc\	.	.	.
24C\	24eee-\	.	.	.
24G\JJ	24ccc\JJ	.	.	.
24G\LL	24ee-\LL	4ee-/	.	.
24c\	24g\	.	.	.
24G\	24ee-\	.	.	.
24E-\	24gg\	.	.	.
24GG\	24ccc\	.	.	.
24E-\JJ	24gg\JJ	.	.	.
=76	=76	=76	=76	=76
24E-\LL	24cc\LL	4cc/	.	.
24G\	24e-\	.	.	.
24E-\	24cc\	.	.	.
24C\	24ee-\	.	.	.
24EE-\	24gg\	.	.	.
24C\JJ	24ee-\JJ	.	.	.
24C\LL	24g\LL	4g/	.	.
24E-\	24c\	.	.	.
24C\	24g\	.	.	.
24GG\	24cc\	.	.	.
24CC\	24ee-\	.	.	.
24GG\JJ	24cc\JJ	.	.	.
!!LO:LB:g=original	!	!	!	!
=77	=77	=77	=77	=77
64CCC/LLLL 64CC	64c\LLLL	4c/	.	.
64DD/	64G\	.	.	.
64EE-/	64c\	.	.	.
64GG/	64d\	.	.	.
64C/	64e-\	.	.	.
64D/	64g\	.	.	.
64E-/	64cc\	.	.	.
64G/JJJJ	64dd\	.	.	.
*clefG2	*	*	*	*
64c\LLLL	64ee-\	.	.	.
64d\	64gg\	.	.	.
64e-\	64ccc\	.	.	.
64g\	64ddd\	.	.	.
80cc\	80eee-\	.	.	.
*	*8va	*	*	*
80dd\	80ggg\	.	.	.
80ee-\	80cccc\	.	.	.
80gg\	80dddd\	.	.	.
80ccc\JJJJ	80eeee-\JJJJ	.	.	.
*	*v	*v	*	*
*	*^	*	*
8eee-\	8bbbb-\	4ryy	.	.
*	*X8va	*	*	*
16.r	16.r	.	.	.
!LO:CL:ed	!	!	!	!
*clefF4	*	*	*	*
32CC/ 32GG	32c/ 32e- 32g 32cc	.	.	.
*	*v	*v	*	*
=78	=78	=78	=78
2CC 2GG 2E-	2c/ 2e- 2g 2cc	.	.
==	==	==	==
*-	*-	*-	*-
!!!system-decoration: {(s1,s2)}
!!!RDF**kern: | = vertical stroke
!!!ENC: Berenika Jozajtis
!!!END: 2021-05-09
